src/assets/images/image-upload.svg

<svg fill="none" height="54" viewBox="0 0 59 54" width="59" xmlns="http://www.w3.org/2000/svg"><path d="m51 32v8h8v5.3333h-8v8h-5.3333v-8h-8v-5.3333h8v-8zm.0214-32c1.4613 0 2.6453 1.18667 2.6453 2.648v24.9307c-1.713-.6051-3.5166-.9135-5.3333-.912v-21.33337h-42.66669l.00266 37.33337 24.77863-24.7814c.4586-.46 1.0694-.7367 1.7177-.7779.6482-.0413 1.2892.1557 1.8023.5539l.248.2267 9.456 9.4667c-2.0676.63-3.9862 1.6723-5.6401 3.0639s-3.0089 3.1037-3.9832 5.0331c-.9743 1.9295-1.5478 4.0362-1.6859 6.1933-.138 2.1571.1622 4.3198.8826 6.3577l-30.26669-.0027c-.70183-.0007-1.37468-.28-1.8707-.7765-.496017-.4965-.774636-1.1697-.774636-1.8715v-42.704c.00488-.70033.285067-1.37062.780036-1.866086.49496-.495466 1.16498-.77632827 1.8653-.781914zm-34.688 10.6667c1.4145 0 2.771.5619 3.7712 1.5621s1.5621 2.3567 1.5621 3.7712-.5619 2.771-1.5621 3.7712-2.3567 1.5621-3.7712 1.5621-2.7711-.5619-3.7713-1.5621-1.5621-2.3567-1.5621-3.7712.5619-2.771 1.5621-3.7712 2.3568-1.5621 3.7713-1.5621z" fill="#bcbcbc"/></svg>

<svg width="59" height="54" viewBox="0 0 59 54" fill="none" xmlns="http://www.w3.org/2000/svg">
<path d="M51 32V40H59V45.3333H51V53.3333H45.6667V45.3333H37.6667V40H45.6667V32H51ZM51.0214 0C52.4827 0 53.6667 1.18667 53.6667 2.648V27.5787C51.9537 26.9736 50.1501 26.6652 48.3334 26.6667V5.33333H5.66671L5.66937 42.6667L30.448 17.8853C30.9066 17.4253 31.5174 17.1486 32.1657 17.1074C32.8139 17.0661 33.4549 17.2631 33.968 17.6613L34.216 17.888L43.672 27.3547C41.6044 27.9847 39.6858 29.027 38.0319 30.4186C36.378 31.8102 35.023 33.5223 34.0487 35.4517C33.0744 37.3812 32.5009 39.4879 32.3628 41.645C32.2248 43.8021 32.525 45.9648 33.2454 48.0027L2.97871 48C2.27688 47.9993 1.60403 47.72 1.10801 47.2235C0.611993 46.727 0.333374 46.0538 0.333374 45.352V2.648C0.338254 1.94767 0.618441 1.27738 1.11341 0.781914C1.60837 0.286448 2.27839 0.00558573 2.97871 0H51.0214ZM16.3334 10.6667C17.7479 10.6667 19.1044 11.2286 20.1046 12.2288C21.1048 13.229 21.6667 14.5855 21.6667 16C21.6667 17.4145 21.1048 18.771 20.1046 19.7712C19.1044 20.7714 17.7479 21.3333 16.3334 21.3333C14.9189 21.3333 13.5623 20.7714 12.5621 19.7712C11.5619 18.771 11 17.4145 11 16C11 14.5855 11.5619 13.229 12.5621 12.2288C13.5623 11.2286 14.9189 10.6667 16.3334 10.6667Z" fill="#BCBCBC"/>
</svg>
